source/svgs/bowtie/uE01B-folder-test.svg

<svg xmlns="http://www.w3.org/2000/svg" viewBox="0 0 448 448" enable-background="new 0 0 448 448"><path d="M144.637 416h-144.637v-384h198.623l63.344 64h186.033v236.688l-64-104v-4.688h32v-96h-224v96h32v4.469l-69.844 111.219c-14.783 21.646-17.617 50.056-9.519 76.312zm282.379.719c-10.188 19.312-28.438 31.281-47.657 31.281h-153.89c-19.031 0-36.344-11.281-46.328-30.219-10.484-19.844-9.922-43.406 1.438-60.031l75.421-120.062v-45.688h-32v-32h160v32h-32v45.75l74.25 120.656c10.828 15.782 11.281 38.375.766 58.313zm-184.957-96.719h123.002l-45.061-73.187v-54.813h-32v54.875l-45.941 73.125z"/></svg>

<svg xmlns="http://www.w3.org/2000/svg" viewBox="0 0 448 448"><path d="M144.637 416H0V32h198.623l63.344 64H448v236.688l-64-104V224h32v-96H192v96h32v4.469l-69.844 111.219c-14.783 21.646-17.617 50.056-9.519 76.312zm282.379.719C416.828 436.031 398.578 448 379.359 448h-153.89c-19.031 0-36.344-11.281-46.328-30.219-10.484-19.844-9.922-43.406 1.438-60.031L256 237.688V192h-32v-32h160v32h-32v45.75l74.25 120.656c10.828 15.782 11.281 38.375.766 58.313zM242.059 320h123.002L320 246.813V192h-32v54.875L242.059 320z"/></svg>
